X: 43143
T: Winnie Hayes'
R: jig
M: 6/8
K: Ddorian
|:AGE D2D|EDC DDD|AGE D2D|EDC DEG|
AGE D2D|EDC DDD|dcA GAc|dcA GED:|
|:ABc ddd|edc dAd|Add dcd|efe cde|
eff efe|dcA cde|dcA GAc|dcA GED:|

